icons/parking-box-line.svg

<svg xmlns="http://www.w3.org/2000/svg" width="24" height="24" fill="none"><g clip-path="url(#a)"><g><path fill="#121212" d="M4 3H20C20.2652 3 20.5196 3.10536 20.7071 3.29289C20.8946 3.48043 21 3.73478 21 4V20C21 20.2652 20.8946 20.5196 20.7071 20.7071C20.5196 20.8946 20.2652 21 20 21H4C3.73478 21 3.48043 20.8946 3.29289 20.7071C3.10536 20.5196 3 20.2652 3 20V4C3 3.73478 3.10536 3.48043 3.29289 3.29289C3.48043 3.10536 3.73478 3 4 3ZM5 5V19H19V5H5ZM9 7H12.5C13.4283 7 14.3185 7.36875 14.9749 8.02513C15.6313 8.6815 16 9.57174 16 10.5C16 11.4283 15.6313 12.3185 14.9749 12.9749C14.3185 13.6313 13.4283 14 12.5 14H11V17H9V7ZM11 9V12H12.5C12.8978 12 13.2794 11.842 13.5607 11.5607C13.842 11.2794 14 10.8978 14 10.5C14 10.1022 13.842 9.72064 13.5607 9.43934C13.2794 9.15804 12.8978 9 12.5 9H11Z"/></g></g><defs><clipPath id="a"><rect width="24" height="24" fill="white"/></clipPath></defs></svg>

<svg width="24" height="24" fill="none" xmlns="http://www.w3.org/2000/svg"><g clip-path="url(#a)"><path d="M4 3h16a1 1 0 0 1 1 1v16a1 1 0 0 1-1 1H4a1 1 0 0 1-1-1V4a1 1 0 0 1 1-1Zm1 2v14h14V5H5Zm4 2h3.5a3.5 3.5 0 1 1 0 7H11v3H9V7Zm2 2v3h1.5a1.5 1.5 0 1 0 0-3H11Z" /></g><defs><clipPath id="a"><path fill="#fff" d="M0 0h24v24H0z"/></clipPath></defs></svg>
